X: 117104
T: LADY MONTGOMERY
Q: "Reel."
R:  Reel.
%R: reel
B: James Kerr "Merry Melodies" v.1 p.17 s.1 #4
Z: 2017 John Chambers <jc:trillian.mit.edu>
M: C
L: 1/8
K: Bb
uF |:!segno!\
B2BF (DE)FD | B2BG (AB)cd |\
B2BF (DE)FD | CccB ABcd :|\
BBfB dBfd | BBfB defg |
BBfB dBfd | edcB ABcd |\
BBfB dBfd | BBfB defg |\
fdec dBcA | BGFD Cc"_D.C."cd |]\
"_Fine."B2 ||

% %newpage
%%sep 1 1 500
%%sep 1 1 500
%%center Set. 28th

%%sep 1 1 500
%%sep 1 1 500

